X:1
T:Title
%%score [ ( 1 2 ) ( 3 4 ) ]
L:1/8
Q:1/4=240
M:4/4
K:F
V:1 treble nm="Midi_74"
V:2 treble 
V:3 bass nm="Midi_74"
V:4 bass 
V:1
"^E. J. Hopkins\n(1818-1901)" F8 | c4 B4 | A8 || B8 | G4 A4 | F4 F4 | E8 || c8 | B4 A4 | d8 || B8 | %11
 B4 A4 | G4 G4 | F8 |] %14
V:2
 C8 | F4 D2 E2 | F8 || F8 | C4 C4 | C4 =B,4 | C8 || E8 | ^F4 F4 | G8 || G8 | E4 F4 | F4 E4 | F8 |] %14
V:3
 A,8 | A,4 B,4 | C8 || B,8 | B,4 A,4 | A,4 F,4 | G,8 || C8 | D4 D4 | D8 || D8 | B,4 C4 | %12
 D4 C2 B,2 | A,8 |] %14
V:4
 F,8 | A,4 G,4 | F,8 || D,8 | E,4 F,4 | D,4 D,4 | C,8 || A,8 | D4 C4 | B,8 || G,8 | G,,4 A,,4 | %12
 B,,4 C,4 | F,8 |] %14

